layouts/icon-pack/armor_backpack.svg

<?xml version="1.0" encoding="UTF-8"?>
<svg width="1200pt" height="1200pt" version="1.1" viewBox="0 0 1200 1200" xmlns="http://www.w3.org/2000/svg">
 <g fill="#fff">
  <path d="m631.97 181.27c14.203 9.8672 39.188 25.312 67.688 34.195 4.0117 1.2812 8.3555 1.0742 12.227-0.58203 3.875-1.6562 7.0234-4.6523 8.8672-8.4414 11.203-23.203 38.414-69.727 78.516-75 6.0938-0.78906 11.391-4.5742 14.113-10.086 2.7227-5.5078 2.5117-12.016-0.56641-17.336-8.4258-14.895-22.094-26.125-38.344-31.5-14.332-4.4844-29.723-4.2617-43.922 0.63281-24.562 8.0391-69.609 29.836-103.45 85.523-2.2383 3.6719-2.9805 8.0664-2.0742 12.27 0.91016 4.2031 3.3945 7.9023 6.9492 10.324z"/>
  <path d="m842.39 263.53c19.945 9.2969 40.5 17.223 61.523 23.719 4.7578 1.4297 9.8242 1.4844 14.613 0.16016 4.7891-1.3203 9.1055-3.9688 12.457-7.6367 21.094-23.438 75.562-69.398 151.9-28.242 8.6016 4.6875 18.75-3.0234 16.102-12.234-9.7734-33.656-37.359-89.297-113.65-96.094-17.738-1.5703-35.605 0.88281-52.266 7.1719-25.547 9.6328-65.32 30.633-100.27 74.859-4.7695 6.0703-6.4609 14.008-4.5859 21.496s7.1055 13.691 14.172 16.801z"/>
  <path d="m1023.7 268.69c8.2305-0.058594 16.445 0.72656 24.516 2.3438 16.746 3.2852 31.953 11.977 43.289 24.734 11.332 12.762 18.168 28.887 19.453 45.906 5.2969 77.344 15.539 309.38-42.586 415.03-12.773 23.203-46.523 24.539-61.43 2.5547-6.0312-8.7891-7.5742-19.898-4.1719-30 10.453-30.703 30.469-109.85 23.438-252.09 0 0-8.0625-124.76-22.406-183.73-1.3672-6.0312 0.097656-12.359 3.9727-17.18 3.875-4.8203 9.7422-7.6094 15.926-7.5703z"/>
  <path d="m843.96 653.25c-30.469 28.945-67.828 51.211-110.91 66.164-38.156 13.266-77.602 17.836-116.55 19.617-142.62 6.4922-234.61-75.703-281.65-134.06-19.758-24.516-58.266-23.555-77.062 1.6641-38.578 51.773-84.211 103.8-114.4 137.02-28.012 30.293-46.852 67.914-54.328 108.49-24.586 140.18 63.281 215.13 129.52 250.9 34.219 18.336 72.461 27.879 111.28 27.773h429.84c184.34 0 192.84-178.52 192.84-178.52v-351.19c0-23.133-29.93-33.586-44.906-15.633-19.895 23.809-41.156 46.441-63.68 67.781z"/>
  <path d="m869.32 344.13c-1.5469-0.60937-3.0938-1.1953-4.6875-1.7344-103.64-36.375-214.92-90.375-283.92-125.81-18.168-9.3281-39.07-11.855-58.938-7.1289-19.871 4.7266-37.395 16.398-49.414 32.91-25.57 35.648-61.219 80.156-101.2 114.84l-1.4766 1.2891c-23.965 21.121-39.887 49.875-45.078 81.395-5.1914 31.52 0.67578 63.863 16.602 91.551 2.5312 4.4844 5.2656 9.0938 8.2031 13.828 76.359 123.23 231.02 178.12 367.71 130.78 36.609-12.727 68.156-31.477 93.75-55.781 40.125-37.828 75.77-80.137 106.24-126.09 16.84-25.527 21.234-57.301 11.953-86.441s-31.242-52.52-59.742-63.605zm-339.49 249.56c-9.1914-0.25391-17.91-4.125-24.262-10.777-6.3477-6.6484-9.8164-15.535-9.6445-24.727 0.16797-9.1953 3.9609-17.949 10.551-24.359 6.5938-6.4102 15.449-9.957 24.645-9.8711 9.1914 0.085937 17.98 3.8008 24.453 10.332 6.4688 6.5312 10.098 15.355 10.094 24.551-0.13672 9.3711-3.9883 18.309-10.707 24.84-6.7188 6.5352-15.758 10.137-25.129 10.012z"/>
 </g>
</svg>

<?xml version="1.0" encoding="UTF-8" standalone="no"?>
<!DOCTYPE svg PUBLIC "-//W3C//DTD SVG 1.1//EN" "http://www.w3.org/Graphics/SVG/1.1/DTD/svg11.dtd">
<svg width="100%" height="100%" viewBox="0 0 497 512" version="1.1" xmlns="http://www.w3.org/2000/svg" xmlns:xlink="http://www.w3.org/1999/xlink" xml:space="preserve" xmlns:serif="http://www.serif.com/" style="fill-rule:evenodd;clip-rule:evenodd;stroke-linejoin:round;stroke-miterlimit:2;">
    <g transform="matrix(1,0,0,1,-84.8336,-69.3116)">
        <g transform="matrix(0.482333,0,0,0.482333,43.9156,35.8803)">
            <path d="M631.97,181.27C646.173,191.137 671.158,206.582 699.658,215.465C703.67,216.746 708.014,216.539 711.885,214.883C715.76,213.227 718.908,210.231 720.752,206.442C731.955,183.239 759.166,136.715 799.268,131.442C805.362,130.653 810.659,126.867 813.381,121.356C816.104,115.848 815.893,109.34 812.815,104.02C804.389,89.125 790.721,77.895 774.471,72.52C760.139,68.035 744.748,68.258 730.549,73.152C705.987,81.191 660.94,102.988 627.099,158.675C624.86,162.347 624.118,166.742 625.025,170.945C625.935,175.148 628.419,178.848 631.974,181.269L631.97,181.27Z" style="fill:white;fill-rule:nonzero;"/>
            <path d="M842.39,263.53C862.335,272.827 882.89,280.753 903.913,287.249C908.671,288.679 913.737,288.733 918.526,287.409C923.315,286.089 927.632,283.44 930.983,279.772C952.077,256.334 1006.55,210.374 1082.88,251.53C1091.49,256.218 1101.63,248.507 1098.99,239.296C1089.21,205.64 1061.63,149.999 985.335,143.202C967.597,141.632 949.73,144.085 933.069,150.374C907.522,160.007 867.749,181.007 832.799,225.233C828.03,231.304 826.338,239.241 828.213,246.729C830.088,254.217 835.319,260.42 842.385,263.53L842.39,263.53Z" style="fill:white;fill-rule:nonzero;"/>
            <path d="M1023.7,268.69C1031.93,268.631 1040.14,269.417 1048.22,271.034C1064.96,274.319 1080.17,283.011 1091.51,295.768C1102.84,308.53 1109.67,324.655 1110.96,341.674C1116.26,419.018 1126.5,651.054 1068.37,756.704C1055.6,779.907 1021.85,781.243 1006.94,759.259C1000.91,750.469 999.368,739.361 1002.77,729.259C1013.22,698.556 1033.24,619.409 1026.21,477.169C1026.21,477.169 1018.15,352.409 1003.8,293.438C1002.44,287.407 1003.9,281.08 1007.77,276.258C1011.65,271.438 1017.52,268.649 1023.7,268.688L1023.7,268.69Z" style="fill:white;fill-rule:nonzero;"/>
            <path d="M843.96,653.25C813.491,682.195 776.132,704.461 733.05,719.414C694.894,732.68 655.448,737.25 616.5,739.031C473.88,745.523 381.89,663.328 334.85,604.971C315.092,580.455 276.584,581.416 257.788,606.635C219.21,658.408 173.577,710.435 143.388,743.655C115.376,773.948 96.536,811.569 89.06,852.145C64.474,992.325 152.341,1067.28 218.58,1103.05C252.799,1121.38 291.041,1130.92 329.86,1130.82L759.7,1130.82C944.04,1130.82 952.54,952.298 952.54,952.298L952.54,601.108C952.54,577.975 922.61,567.522 907.634,585.475C887.739,609.284 866.478,631.916 843.954,653.256L843.96,653.25Z" style="fill:white;fill-rule:nonzero;"/>
            <path d="M869.32,344.13C867.773,343.521 866.226,342.935 864.633,342.396C760.993,306.021 649.713,252.021 580.713,216.586C562.545,207.258 541.643,204.731 521.775,209.457C501.904,214.183 484.38,225.855 472.361,242.367C446.791,278.015 411.142,322.523 371.161,357.207L369.684,358.496C345.719,379.617 329.797,408.371 324.606,439.891C319.415,471.411 325.282,503.754 341.208,531.442C343.739,535.926 346.474,540.536 349.411,545.27C425.77,668.5 580.431,723.39 717.121,676.05C753.73,663.323 785.277,644.573 810.871,620.269C850.996,582.441 886.641,540.132 917.111,494.179C933.951,468.652 938.345,436.878 929.064,407.738C919.783,378.598 897.822,355.218 869.322,344.133L869.32,344.13ZM529.83,593.69C520.639,593.436 511.92,589.565 505.568,582.913C499.22,576.265 495.752,567.378 495.924,558.186C496.091,548.991 499.884,540.237 506.475,533.827C513.068,527.417 521.924,523.87 531.12,523.956C540.311,524.042 549.1,527.757 555.573,534.288C562.041,540.819 565.67,549.643 565.667,558.839C565.53,568.21 561.678,577.148 554.96,583.679C548.241,590.214 539.202,593.816 529.831,593.691L529.83,593.69Z" style="fill:white;fill-rule:nonzero;"/>
        </g>
    </g>
</svg>
